build/logo/ETCDOutline.svg

<svg xmlns="http://www.w3.org/2000/svg" fill="none" viewBox="0 0 24 24" focusable="false"><path d="M0 0H24V24H0z"/><path fill="#74767B" fill-rule="evenodd" d="M18.8662 6.67725L17.4785 7.95215L17.8535 8.22461C18.7822 8.89941 19.1709 10.0955 18.8159 11.1873L18.7241 11.4707L20.4604 11.7014C21.2969 11.8127 21.8271 12.6548 21.5664 13.457L20.7798 15.8779C20.5195 16.6802 19.5952 17.0496 18.8535 16.6479L17.3125 15.814L17.1758 16.2358C16.8208 17.3276 15.8032 18.0669 14.6553 18.0669L14.3579 18.0669L14.688 19.8586C14.8408 20.6882 14.2036 21.4529 13.3604 21.4529L10.8145 21.4529C9.97119 21.4529 9.33398 20.6882 9.48682 19.8586L9.81641 18.0669L9.34717 18.0669C8.19922 18.0669 7.18164 17.3276 6.82666 16.2358L6.68799 15.8086L5.13721 16.6479C4.39551 17.0496 3.47168 16.6802 3.21094 15.8779L2.42432 13.457C2.16357 12.6548 2.69434 11.8127 3.53027 11.7014L5.27832 11.4692L5.18652 11.1873C4.83154 10.0955 5.22021 8.89941 6.14941 8.22461L6.53076 7.94727L5.14844 6.67725C4.52686 6.10669 4.5752 5.11255 5.24902 4.60498L7.28223 3.073C7.95557 2.56543 8.9248 2.79297 9.30176 3.54712L10.1777 5.29785L10.4434 5.10449C11.3726 4.42969 12.6299 4.42969 13.5591 5.10449L13.8335 5.3042L14.7124 3.54712C15.0894 2.79297 16.0586 2.56543 16.7324 3.073L18.7651 4.60498C19.439 5.11255 19.4873 6.10669 18.8662 6.67725ZM16.4053 7.17261L14.8999 6.07861L15.9497 4.11108L17.9868 5.71997L16.4053 7.17261ZM9.11133 6.07251L7.604 7.16772L6.03125 5.64307L8.13916 4.12866L9.11133 6.07251ZM12.7949 6.15625C12.3218 5.8125 11.6807 5.8125 11.2075 6.15625L6.91309 9.27637C6.43994 9.62012 6.24219 10.2295 6.42285 10.7856L8.06299 15.834C8.24414 16.3901 8.76221 16.7668 9.34717 16.7668L14.6553 16.7668C15.2402 16.7668 15.7583 16.3901 15.9395 15.834L17.5796 10.7856C17.7603 10.2295 17.5625 9.62012 17.0894 9.27637L12.7949 6.15625ZM9.69629 10.0969C8.92432 10.0969 8.29883 10.7224 8.29883 11.4939C8.29883 12.2656 8.92432 12.8911 9.69629 12.8911C10.4678 12.8911 11.0933 12.2656 11.0933 11.4939C11.0933 10.7224 10.4678 10.0969 9.69629 10.0969ZM14.3037 10.0969C13.5317 10.0969 12.9062 10.7224 12.9062 11.4939C12.9062 12.2656 13.5317 12.8911 14.3037 12.8911C15.0752 12.8911 15.7007 12.2656 15.7007 11.4939C15.7007 10.7224 15.0752 10.0969 14.3037 10.0969ZM5.68652 12.7263L6.27979 14.5515L4.44727 15.4763L3.70166 12.9902L5.68652 12.7263ZM17.7212 14.5569L18.3154 12.7278L20.3301 13.0552L19.4722 15.5046L17.7212 14.5569ZM11.1387 18.0669L13.0361 18.0669L13.3604 20.1528L10.7656 20.094L11.1387 18.0669Z"/></svg>

<svg xmlns="http://www.w3.org/2000/svg" fill="none" viewBox="0 0 24 24" focusable="false"><path fill="#74767B" fill-rule="evenodd" d="m18.86 6.67-1.39 1.28.38.27c.93.67 1.32 1.87.96 2.96l-.09.29 1.74.23c.83.11 1.36.95 1.1 1.75l-.79 2.42a1.34 1.34 0 0 1-1.92.77l-1.54-.83-.14.42a2.645 2.645 0 0 1-2.52 1.83h-.3l.33 1.79c.16.83-.48 1.6-1.32 1.6h-2.55c-.84 0-1.48-.77-1.33-1.6l.33-1.79h-.47c-1.15 0-2.16-.74-2.52-1.83l-.14-.43-1.55.84c-.74.4-1.66.04-1.92-.77l-.79-2.42c-.26-.8.27-1.64 1.11-1.75l1.74-.24-.09-.28c-.35-1.09.04-2.29.96-2.96l.39-.28-1.39-1.27a1.35 1.35 0 0 1 .1-2.07l2.04-1.53c.67-.51 1.64-.28 2.02.47l.87 1.75.27-.19c.93-.68 2.18-.68 3.11 0l.28.2.88-1.76c.37-.75 1.34-.98 2.02-.47l2.03 1.53c.67.51.72 1.5.1 2.07m-2.46.5-1.51-1.1 1.05-1.96 2.04 1.6zm-7.29-1.1L7.6 7.16 6.03 5.64l2.1-1.52zm3.68.08c-.47-.34-1.11-.34-1.59 0L6.91 9.27c-.48.35-.67.95-.49 1.51l1.64 5.05c.18.56.7.93 1.28.93h5.31c.59 0 1.1-.37 1.28-.93l1.64-5.05c.19-.56-.01-1.16-.49-1.51zm-3.1 3.94c-.77 0-1.4.63-1.4 1.4s.63 1.4 1.4 1.4 1.4-.63 1.4-1.4-.63-1.4-1.4-1.4m4.61 0c-.77 0-1.4.63-1.4 1.4s.63 1.4 1.4 1.4 1.4-.63 1.4-1.4-.63-1.4-1.4-1.4m-8.62 2.63.59 1.83-1.83.92-.74-2.48zm12.04 1.83.59-1.83 2.02.33-.86 2.45zm-6.59 3.51h1.9l.33 2.09-2.6-.06z"/></svg>
